X: 10802
M: 6/8
L: 1/8
K: G
(d/c/) |\
(A/B/) |\
cBA cBA | G2G GAB | cBA cBA | G2G GBd |\
e2e e2f | g2g g>Bc | ded dcB | A2A AFG |]


